assets/img/braze_icons/align-bottom-01.svg

<svg fill="none" height="24" viewBox="0 0 24 24" width="24" xmlns="http://www.w3.org/2000/svg"><g fill="#801ed7"><path d="m12 2c.5523 0 1 .44772 1 1v11.5858l5.2929-5.29291c.3905-.39052 1.0237-.39052 1.4142 0 .3905.39053.3905 1.02371 0 1.41421l-7 7c-.3905.3905-1.0237.3905-1.4142 0l-7.00001-7c-.39052-.3905-.39052-1.02368 0-1.41421.39053-.39052 1.02369-.39052 1.41422 0l5.29289 5.29291v-11.5858c0-.55228.4477-1 1-1z"/><path d="m2 21c0-.5523.44772-1 1-1h18c.5523 0 1 .4477 1 1s-.4477 1-1 1h-18c-.55228 0-1-.4477-1-1z"/></g></svg>

<svg width="24" height="24" viewBox="0 0 24 24" fill="none" xmlns="http://www.w3.org/2000/svg">
<path d="M12 2C12.5523 2 13 2.44772 13 3V14.5858L18.2929 9.29289C18.6834 8.90237 19.3166 8.90237 19.7071 9.29289C20.0976 9.68342 20.0976 10.3166 19.7071 10.7071L12.7071 17.7071C12.3166 18.0976 11.6834 18.0976 11.2929 17.7071L4.29289 10.7071C3.90237 10.3166 3.90237 9.68342 4.29289 9.29289C4.68342 8.90237 5.31658 8.90237 5.70711 9.29289L11 14.5858L11 3C11 2.44772 11.4477 2 12 2Z" fill="#801ED7"/>
<path d="M2 21C2 20.4477 2.44772 20 3 20L21 20C21.5523 20 22 20.4477 22 21C22 21.5523 21.5523 22 21 22L3 22C2.44772 22 2 21.5523 2 21Z" fill="#801ED7"/>
</svg>
